packages/icons/src/components/Icon/assets/small-outline/filter.svg

<svg width="16" height="16" viewBox="0 0 16 16" fill="none" xmlns="http://www.w3.org/2000/svg">
<path fill-rule="evenodd" clip-rule="evenodd" d="M2.13955 1.49138C4.0452 1.16822 6.0032 1 8.00005 1C9.99686 1 11.9548 1.16821 13.8604 1.49136C14.5278 1.60452 15 2.1853 15 2.84814V3.59248C15 4.17264 14.7695 4.72904 14.3593 5.13927L10.4865 9.01207C10.2951 9.20352 10.1875 9.46317 10.1875 9.73391V11.8211C10.1875 12.6496 9.71937 13.4071 8.97828 13.7776L6.65671 14.9384C6.47588 15.0288 6.26113 15.0192 6.08916 14.9129C5.91718 14.8066 5.8125 14.6188 5.8125 14.4167V9.73391C5.8125 9.46317 5.70495 9.20352 5.5135 9.01207L1.6407 5.13927C1.23047 4.72904 1 4.17264 1 3.59248V2.84816C1 2.18532 1.47224 1.60454 2.13955 1.49138ZM8.00005 2.16667C6.06884 2.16667 4.17608 2.32935 2.33461 2.64162C2.2421 2.65731 2.16667 2.74033 2.16667 2.84816V3.59248C2.16667 3.86322 2.27422 4.12287 2.46566 4.31431L6.33846 8.18712C6.7487 8.59735 6.97917 9.15375 6.97917 9.73391V13.4728L8.45653 12.7341C8.80237 12.5612 9.02083 12.2077 9.02083 11.8211V9.73391C9.02083 9.15375 9.2513 8.59735 9.66154 8.18712L13.5343 4.31431C13.7258 4.12287 13.8333 3.86322 13.8333 3.59248V2.84814C13.8333 2.74031 13.7579 2.65729 13.6654 2.64161C11.8239 2.32934 9.93122 2.16667 8.00005 2.16667Z" fill="black"/>
</svg>

<svg xmlns="http://www.w3.org/2000/svg" width="16" height="16" fill="none" viewBox="0 0 16 16">
    <path d="M2.14 1.491A35 35 0 0 1 8 1c1.997 0 3.955.168 5.86.491.668.114 1.14.694 1.14 1.357v.744c0 .58-.23 1.137-.64 1.547l-3.873 3.873a1.02 1.02 0 0 0-.3.722v2.087c0 .829-.468 1.586-1.209 1.957l-2.321 1.16a.583.583 0 0 1-.844-.521V9.734c0-.27-.108-.53-.3-.722L1.641 5.14A2.2 2.2 0 0 1 1 3.592v-.744c0-.663.472-1.243 1.14-1.357M8 2.167c-1.931 0-3.824.162-5.665.475a.206.206 0 0 0-.168.206v.744c0 .271.107.53.299.722l3.872 3.873c.41.41.641.967.641 1.547v3.739l1.478-.739a1.02 1.02 0 0 0 .564-.913V9.734c0-.58.23-1.137.64-1.547l3.873-3.873a1.02 1.02 0 0 0 .3-.722v-.744a.206.206 0 0 0-.169-.206A34 34 0 0 0 8 2.167" clip-rule="evenodd"/>
</svg>
